bootstrap/envelope-paper-fill.svg

<svg xmlns="http://www.w3.org/2000/svg" width="16" height="16" fill="currentColor" class="bi bi-envelope-paper-fill" viewBox="0 0 16 16">
  <path fill-rule="evenodd" d="M6.5 9.5 3 7.5v-6A1.5 1.5 0 0 1 4.5 0h7A1.5 1.5 0 0 1 13 1.5v6l-3.5 2L8 8.75zM1.059 3.635 2 3.133v3.753L0 5.713V5.4a2 2 0 0 1 1.059-1.765M16 5.713l-2 1.173V3.133l.941.502A2 2 0 0 1 16 5.4zm0 1.16-5.693 3.337L16 13.372v-6.5Zm-8 3.199 7.941 4.412A2 2 0 0 1 14 16H2a2 2 0 0 1-1.941-1.516zm-8 3.3 5.693-3.162L0 6.873v6.5Z"/>
</svg>

<svg viewBox="0 0 16 16" xmlns="http://www.w3.org/2000/svg"><path fill-rule="evenodd" d="M6.5 9.5L3 7.5v-6 0C3 .67 3.67 0 4.5 0h7v0c.82 0 1.5.67 1.5 1.5v6l-3.5 2L8 8.75l-1.5.75ZM1.05 3.635l.94-.51v3.753l-2-1.173v-.32h0c-.01-.74.4-1.42 1.05-1.77Zm14.94 2.07l-2 1.173V3.125l.94.5v0c.65.34 1.05 1.02 1.05 1.76v.31Zm0 1.16l-5.693 3.33 5.693 3.16v-6.5Zm-8 3.19l7.94 4.41h0c-.23.89-1.03 1.51-1.95 1.51h-12v0c-.92 0-1.72-.63-1.95-1.516l7.941-4.42Zm-8 3.3l5.693-3.17L-.01 6.84v6.5Z"/></svg>
